docs/assets/beard_goatee_red.svg

<?xml version="1.0" encoding="utf-8"?>
<!-- Generator: Adobe Illustrator 23.0.1, SVG Export Plug-In . SVG Version: 6.00 Build 0)  -->
<svg version="1.1" id="Fakial_hair" xmlns="http://www.w3.org/2000/svg" xmlns:xlink="http://www.w3.org/1999/xlink" x="0px"
	 y="0px" width="450px" height="378px" viewBox="0 0 450 378" enable-background="new 0 0 450 378" xml:space="preserve">
<path fill="#DC4A26" stroke="#3E2670" stroke-width="3" stroke-miterlimit="10" d="M230.149,186.851
	c-9.402,10.366-18.766,12.128-18.766,12.128s19.745,3.277,30.638-2.851c9.347-5.258,10.468-22.17,10.468-22.17
	s-2.327,2.626-8.043,3.319c-4.213,0.511-8.17-1.404-8.17-1.404S235.128,181.362,230.149,186.851z"/>
<path opacity="0.4" fill="#FFFFFF" d="M241.342,192.106c-0.066,0-0.133-0.007-0.2-0.021c-0.541-0.109-0.891-0.638-0.78-1.179
	c0.032-0.167,0.772-4.253-2.714-8.903c-0.332-0.442-0.242-1.069,0.2-1.4c0.441-0.332,1.068-0.241,1.399,0.2
	c4.052,5.404,3.115,10.296,3.073,10.501C242.225,191.78,241.808,192.106,241.342,192.106z"/>
<path opacity="0.4" fill="#FFFFFF" d="M245.767,186.745c-0.015,0-0.029,0-0.044-0.001c-0.552-0.024-0.98-0.491-0.956-1.042
	c0.001-0.055,0.013-1.658-1.615-3.72c-0.342-0.434-0.268-1.063,0.166-1.405c0.433-0.341,1.063-0.267,1.404,0.166
	c2.12,2.686,2.047,4.951,2.043,5.046C246.741,186.325,246.299,186.745,245.767,186.745z"/>
<path opacity="0.4" fill="#FFFFFF" d="M235.724,195c-0.114,0-0.23-0.02-0.345-0.062c-0.519-0.189-0.784-0.765-0.594-1.283
	c1.077-2.937-0.505-6.389-0.521-6.424c-0.233-0.5-0.017-1.096,0.483-1.329c0.501-0.235,1.095-0.017,1.329,0.483
	c0.08,0.172,1.947,4.25,0.586,7.959C236.514,194.749,236.131,195,235.724,195z"/>
</svg>

<svg width="450" height="378" viewBox="0 0 450 378" fill="none" xmlns="http://www.w3.org/2000/svg">
<path d="M230.149 186.851C220.747 197.217 211.383 198.979 211.383 198.979C211.383 198.979 231.128 202.256 242.021 196.128C251.368 190.87 252.489 173.958 252.489 173.958C252.489 173.958 250.162 176.584 244.446 177.277C240.233 177.788 236.276 175.873 236.276 175.873C236.276 175.873 235.128 181.362 230.149 186.851Z" fill="#9C1F00" stroke="#3E2670" stroke-width="3" stroke-miterlimit="10"/>
<path opacity="0.4" d="M241.342 192.106C241.276 192.106 241.209 192.099 241.142 192.085C240.601 191.976 240.251 191.447 240.362 190.906C240.394 190.739 241.134 186.653 237.648 182.003C237.316 181.561 237.406 180.934 237.848 180.603C238.289 180.271 238.916 180.362 239.247 180.803C243.299 186.207 242.362 191.099 242.32 191.304C242.225 191.78 241.808 192.106 241.342 192.106Z" fill="#DD9280"/>
<path opacity="0.4" d="M245.767 186.745C245.752 186.745 245.738 186.745 245.723 186.744C245.171 186.72 244.743 186.253 244.767 185.702C244.768 185.647 244.78 184.044 243.152 181.982C242.81 181.548 242.884 180.919 243.318 180.577C243.751 180.236 244.381 180.31 244.722 180.743C246.842 183.429 246.769 185.694 246.765 185.789C246.741 186.325 246.299 186.745 245.767 186.745Z" fill="#DDBABA"/>
<path opacity="0.4" d="M235.724 195C235.61 195 235.494 194.98 235.379 194.938C234.86 194.749 234.595 194.173 234.785 193.655C235.862 190.718 234.28 187.266 234.264 187.231C234.031 186.731 234.247 186.135 234.747 185.902C235.248 185.667 235.842 185.885 236.076 186.385C236.156 186.557 238.023 190.635 236.662 194.344C236.514 194.749 236.131 195 235.724 195Z" fill="#E18570"/>
</svg>
